X: 201443
T: Tom Billy's #3
S: B.Breathnach: "Ceol Rince na hEireann" II/60 (gan ainm) 
Z: B.Black
L: 1/8
M: 6/8
R: jig
K: D
B|AFF AFF|BGG BGG|AFF AFA|BEE E2B|
AFF AFF|BGG AFF|AFA B2c|1 d3 c2 :|2 d3 d2||
A|d2d ded|cBB ce/c/B|AFF AFA|BEE EDE|
d2d ded|cBB cBB|AFA B2c|d3 d2 :|
